X:411
T:Lady Down
R:Reel
B:The Athole Collection
M:C|
L:1/8
K:C
G|~c2 cG ECCE|FEDC B,G,G,E|~c2 cG ECCE|FDGE C/C/C C:|
e|gagf ecce|gdec BGGB|gagf ecce|gdge c/c/c ce|gagf ecce|fdec BGGB|
cGAF EFGf|ecde c/c/c c||

